X: 4196
T: Blue-eyed Lassie, The
R: reel
M: 4/4
K: Dmajor
DFAF BFAd|DFFA BE~E2|DFAF BFAd|faAc ed~d2:|
dffd ceAc|d2AF GFED|A,D (3DDD A,DFA|fade feef|
~a3f gfef|edfd edfd|ADFA EAFA|faAc ed~d2||

